icons/linear-ele-office-monitor.svg

<svg xmlns="http://www.w3.org/2000/svg" width="32px" height="32px" viewBox="0 0 32 32" version="1.1">
    <title>linear-ele-office-monitor</title>
    <g id="linear-ele-office-monitor" stroke-width="1" fill-rule="evenodd">
        <path d="M9,29 C8.44771525,29 8,28.5522847 8,28 C8,27.4477153 8.44771525,27 9,27 L15,27 L15,23 L6,23 C3.790861,23 2,21.209139 2,19 L2,7 C2,4.790861 3.790861,3 6,3 L26,3 C28.209139,3 30,4.790861 30,7 L30,19 C30,21.209139 28.209139,23 26,23 L17,23 L17,27 L23,27 C23.5522847,27 24,27.4477153 24,28 C24,28.5522847 23.5522847,29 23,29 L9,29 Z M26,5 L6,5 C4.8954305,5 4,5.8954305 4,7 L4,19 C4,20.1045695 4.8954305,21 6,21 L26,21 C27.1045695,21 28,20.1045695 28,19 L28,7 C28,5.8954305 27.1045695,5 26,5 Z" id="&#24418;&#29366;" fill-rule="nonzero" />
    </g>
</svg>

<svg xmlns="http://www.w3.org/2000/svg" viewBox="0 0 32 32"><path fill="currentColor" d="M9 29a1 1 0 0 1 0-2h6v-4H6a4 4 0 0 1-4-4V7a4 4 0 0 1 4-4h20a4 4 0 0 1 4 4v12a4 4 0 0 1-4 4h-9v4h6a1 1 0 0 1 0 2zM26 5H6a2 2 0 0 0-2 2v12a2 2 0 0 0 2 2h20a2 2 0 0 0 2-2V7a2 2 0 0 0-2-2"/></svg>
